X:14411
T:Rolling in the Barrel
S:irtrad-l, J. Walsh, 10/94
H:Paddy Canny and P.J. Hayes
R:reel
E:7
I:speed 350
M:C|
K:ADor
E2~E2 BE~E2|B2 AF DEFD|E2~E2 BE ~E2|B2Ac BEED|\
E2~E2 BE~E2|B2 AF DEFD|E2~E2 BE ~E2|B2Ac BE~E2||
e2 (3gfe be (3gfe|d3f a2fd|e2(3gfe be (3gfe|dBAc BE~E2|\
e2(3gfe be (3gfe|d3f a2fd|efge fdeB|(3dcB Ac BE~E2||
